X: 40982
T: Trip To Dublin, The
R: reel
M: 4/4
K: Adorian
|:cB|ABcd efec|dABG E2G2|ABcd efed|cAAG A2cB|
ABcd efec|dABG E2G2|ecdB cABG|cAAG A2:|
|:cd|ec~c2 Gcec|dB~B2 GBdB|cAAG ABAG|E2ED E2cd|ec~c2 Gcec|
dB~B2 GBdB|1 ABcd efed|cAAG A2:|2 ecdB cABG|cAAG A2||

